X: 4043
T: The Highlander's Knee Buckle
R: Reel.
%R: reel
B: James Kerr "Merry Melodies" v.4 p.07 #43
Z: 2016 John Chambers <jc:trillian.mit.edu>
M: C
L: 1/8
K: Edor	% and D
(dc) |\
(BE)E2 GAFB | AFdF DEFA |\
(BE)E2 BAFB | AFdF E2 :|\
(FE) |\
DFAB d2(cB) | BdAc BcAF |
DFAB defe | dBAF E2(FE) |\
DFAB d2(cB) | BdAc BcAg |\
fdec dcBA | (3(Bcd) (AF) D2 |]

%%sep 1 1 500
%%sep 1 1 500

